X:100
T:The King of the Fairies
N:page 34
N:heptatonic
% Nottingham Music Database
S:Fiddler's Fakebook, via PR
R:Hornpipe
M:4/4
L:1/8
K:Amin
E,|"Am"A,G,A,B, CB,CD|E2 ED CB,CD|E2 A,2 A,B,CA,|"G"B,CB,A, G,2E,2|"Am"A,G,A,B, CB,CD|
"Am"EDCE "G" G2 GF|"Am"E2 A,2 "G"CB,A,G,|"Am"A,6-A,:|G|"Am"A2A2 EGAB|cdcB A3B|"Am"A2E2 EDEF|
"G"GAGF EF (3GFE|"Am"A2E2 EGAB|cdcB ABAG|"Am"EGAc "G"BAGB|"Am"A6 AB|"C"c3A "G"B3G|"C"AGE^F "G" G3A|
"G"GEDB, "C"CDE^F|"G"GEDB, CB,A,G,|"Am"E,2 A,2 A,B,CD|E2 A2 AGAB|"Am"A2 E2 "G"EDCB,|"Am"A,6|

